X:1
T:RVW2/1/66 High Germany
T:RVW2/1/66 High Germany
T:Transcribed by Simon Furey and Lewis Jones
C:Transcribed by Simon Furey and Lewis Jones
L:1/8
Q:1/4=120
M:6/8
K:F
V:1 treble 
V:1
"^Editorial suggestion" G |"^(a)" CCC C2 E |"^(b)" G B2 z2 D | F2 E C2 =B, | C3 z2 G |: %5
w: |||||
"^(c)" c2 c GAB | c2 c B2 A | G2 C E2 F |"^1" G3 z2 A :|"^2" G3 F2 D || C2 C E2 F | G2 A B2 D | %12
w: ||in * * *|High Ger-|* ma- *|ny, my love, in|High * Germ- an-|
 x6 :| F2 E C2 C | C3- C2 ||"^(Chorus)" (GA)B | c3 (GA)B | c2 d B2 A | (G2 C) E2 F | G3 c2 B | %20
w: |y * * *|||||||
 G2 F D2 C | G2 A B2 D | (F2 E) C2 C | C3 || G |"^(a) var." C2 C C2 E |"^(b) var." G3 B2 D | %27
w: |||||||
 F2 E C2 =B, | C3 z2 G |:"^(c) var." G2 E GAB | c2 c B2 A | G2 C E2 F |"^1" G3 z2 A :| %33
w: ||||||
"^2" G3 F2 D || C2 C E2 F | G2 A B2 D | F2 E C2 C | C3- C2 ||"^(Chorus)" (GA)B | c3 (GA)B | %40
w: |||||in * *|High Ger- * ma-|
 c2 d B2 A | (G2 C) E2 F | G3 c2 B | G2 F D2 C | G2 A B2 D | (F2 E) C2 C | C3 |] c/d/ | eed c/B/ | %49
w: ny, my love, in|High * Ger- ma-|ny * *|||||||
 AAE c/d/ | e e/d/c A | G B/d/d c/d/ | %52
w: |||

